docs/assets/images/users.svg

<svg xmlns="http://www.w3.org/2000/svg" width="20" height="20" fill="#F68DFE" viewBox="0 0 20 20" xmlns:xlink="http://www.w3.org/1999/xlink">
  <g clip-path="url(#a)">
    <path d="M10.75 5.75c0-.25-.125-.5-.25-.75.125.375.25.5.25.75m2.875-4.5c-1.25 0-2.5.75-2.875 1.875.875.75 1.375 1.875 1.375 3.125 0 .25 0 .5-.125.75.5.5 1.125.625 1.625.625A3.095 3.095 0 0 0 16.75 4.5c.125-1.75-1.375-3.25-3.125-3.25"/>
    <path d="M7.75 9.5a3.125 3.125 0 1 0 0-6.25 3.125 3.125 0 0 0 0 6.25m5.875-.5c-1.375 0-2.5.375-3.5 1.125 2.75.875 4.75 3.375 5.125 6.25H19c.625 0 1-.5 1-1C20 11.75 17.125 9 13.625 9"/>
    <path d="M13 18.25H2.375c-.625 0-1-.5-1-1 0-3.5 2.875-6.375 6.375-6.375s6.375 2.875 6.375 6.375c-.125.625-.5 1-1.125 1"/>
  </g>
  <defs>
    <clipPath id="a">
      <path fill="#fff" d="M0 0h20v20H0z"/>
    </clipPath>
  </defs>
</svg>

<svg xmlns="http://www.w3.org/2000/svg" width="20" height="20" fill="#F68DFE" viewBox="0 0 20 20"><g clip-path="url(#clip0_367_3654)"><path d="M10.75 5.75C10.75 5.5 10.625 5.25 10.5 5C10.625 5.375 10.75 5.5 10.75 5.75Z"/><path d="M13.625 1.25C12.375 1.25 11.125 2 10.75 3.125C11.625 3.875 12.125 5 12.125 6.25C12.125 6.5 12.125 6.75 12 7C12.5 7.5 13.125 7.625 13.625 7.625C15.375 7.625 16.75 6.25 16.75 4.5C16.875 2.75 15.375 1.25 13.625 1.25Z"/><path d="M7.75 9.5C9.47589 9.5 10.875 8.10089 10.875 6.375C10.875 4.64911 9.47589 3.25 7.75 3.25C6.02411 3.25 4.625 4.64911 4.625 6.375C4.625 8.10089 6.02411 9.5 7.75 9.5Z"/><path d="M13.625 9C12.25 9 11.125 9.375 10.125 10.125C12.875 11 14.875 13.5 15.25 16.375H19C19.625 16.375 20 15.875 20 15.375C20 11.75 17.125 9 13.625 9Z"/><path d="M13 18.25H2.375C1.75 18.25 1.375 17.75 1.375 17.25C1.375 13.75 4.25 10.875 7.75 10.875C11.25 10.875 14.125 13.75 14.125 17.25C14 17.875 13.625 18.25 13 18.25Z"/></g><defs><clipPath id="clip0_367_3654"><rect width="20" height="20" fill="#fff"/></clipPath></defs></svg>
